packages/calcite-ui-icons/icons/envelope-16-f.svg

<?xml version="1.0" encoding="UTF-8"?><svg id="icons" xmlns="http://www.w3.org/2000/svg" viewBox="0 0 16 16"><path d="M15,14c.55176,0,1-.44824,1-1V3c0-.55084-.44824-1-1-1H1c-.55078,0-1,.44916-1,1v10c0,.55176.44922,1,1,1h14ZM1,12.29297l4.64758-4.64758L1,3.9292v-.9292h.43903l6.56097,5.24609,6.56-5.24609h.44v.92908l-4.64758,3.71631,4.64758,4.64758v.70703h-.70703l-4.72632-4.72632-1.56665,1.25269-1.56665-1.25269L1.70703,13h-.70703v-.70703Z"/><rect width="16" height="16" style="fill:none;"/></svg>

<svg xmlns="http://www.w3.org/2000/svg" viewBox="0 0 16 16"><path d="M15 14a1 1 0 0 0 1-1V3c0-.55-.448-1-1-1H1c-.55 0-1 .45-1 1v10c0 .552.45 1 1 1zM1 12.293l4.648-4.648L1 3.93V3h.439L8 8.246 14.56 3H15v.93l-4.648 3.715L15 12.293V13h-.707L9.567 8.274 8 9.526 6.433 8.274 1.707 13H1z"/><path d="M0 0h16v16H0z" style="fill:none"/></svg>
